icons/_assets/justice_hammer.svg

<?xml version="1.0" encoding="UTF-8"?>
<svg width="100px" height="100px" viewBox="0 0 100 100" version="1.1" xmlns="http://www.w3.org/2000/svg" xmlns:xlink="http://www.w3.org/1999/xlink">
    <title>justice hammer</title>
    <g id="justice-hammer" stroke="none" stroke-width="1" fill="none" fill-rule="evenodd">
        <path d="M0,100 L100,100 L100,0 L0,0 L0,100 Z M1.34215577,98.6578442 L98.6578442,98.6578442 L98.6578442,1.34215577 L1.34215577,1.34215577 L1.34215577,98.6578442 Z" id="outline" fill="#FFFFFF" opacity="0"></path>
        <path d="M33.5572114,4.69358643 C39.3511965,2.25062298 44.3263342,2.45623231 47.566649,5.2738917 L47.566649,5.2738917 L54.9888855,11.7275897 C54.9902345,11.7289424 54.9902345,11.7289424 54.9915835,11.7302951 C57.4332862,13.8553757 58.5327269,17.1762369 58.2265023,21.3682323 C62.0752192,24.7878401 69.2613795,31.1982519 75.6462296,36.8971473 C79.2912465,36.3046678 82.4141976,36.96884 84.6764824,38.9370082 C86.0281874,40.1124984 90.5581529,43.6863131 92.1068129,44.9037368 C92.319956,45.0565911 92.525005,45.2189142 92.7233091,45.3920589 C99.0231717,50.8704653 95.98251,64.3825151 85.8029032,76.1550018 C81.13399,81.5535993 75.6705117,85.7455947 70.4201765,87.9599531 C67.7396996,89.0894517 65.2332446,89.6521719 62.993893,89.6521719 C60.5238612,89.6521719 58.3910811,88.9447135 56.6899833,87.5784937 C56.6737952,87.5663194 56.6522111,87.563614 56.634674,87.5514398 C56.5159614,87.4702782 53.6290865,85.50211 48.3639122,80.9232444 C45.5566286,78.4829863 44.6150217,74.4424925 45.3219014,69.6756026 C44.5893906,69.02631 43.4832049,68.048313 42.155782,66.8728228 L42.155782,66.8728228 L17.5080753,94.4028296 C15.9688583,96.123455 13.8293332,97 11.6817141,97 C9.83627249,97 7.98408589,96.3520601 6.5001782,95.0345372 C5.00952547,93.7102508 4.12592589,91.8814099 4.01260931,89.8861878 C3.89794371,87.8909657 4.56840019,85.9741998 5.89852108,84.4875903 L5.89852108,84.4875903 L30.7189007,56.7655012 C30.196835,56.3055856 29.6977024,55.8659604 29.228248,55.4520363 C27.8428178,55.796973 26.5180929,55.9701177 25.2756575,55.9701177 C22.6572349,55.9701177 20.3976482,55.2126097 18.6790133,53.7165313 L18.6790133,53.7165313 L18.6749663,53.7124732 L11.2540788,47.2601279 C8.01376404,44.4438212 7.10723134,39.5335458 8.69905959,33.435606 C10.1411481,27.9112081 13.5082695,21.8971352 18.1771827,16.497185 C22.8460959,11.0985875 28.3082252,6.90659208 33.5572114,4.69358643 Z M86.4571716,47.8810139 C86.150947,47.8688397 85.8312324,47.8783086 85.5020746,47.898599 L85.5020746,47.898599 L85.2794885,47.9148313 C84.9476328,47.9432378 84.602287,47.9919348 84.2488472,48.0541586 L84.2488472,48.0541586 L84.0046769,48.0987975 C83.6579821,48.1677848 83.3018442,48.2543572 82.9376124,48.3531038 C82.8269938,48.3842157 82.7163752,48.4153277 82.6044076,48.4477923 C82.2658069,48.5478916 81.9218101,48.6628705 81.5710683,48.7900236 C81.4091874,48.8468367 81.2459576,48.9090606 81.0813787,48.9739898 C80.7778522,49.0916741 80.4702786,49.22018 80.160007,49.3568019 C79.8956016,49.4731335 79.6284982,49.6002867 79.3627438,49.7287925 C79.0902444,49.8600037 78.819094,49.9912149 78.5425476,50.1373058 C78.2633031,50.2833966 77.9840587,50.4443671 77.7048142,50.6026321 C77.4282678,50.7581918 77.1557684,50.9083407 76.877873,51.0787801 C76.5932325,51.2505721 76.309941,51.4399491 76.0266495,51.625268 C75.7528011,51.8038235 75.4803017,51.9742628 75.2024063,52.1649925 C74.8894366,52.382776 74.575118,52.6194973 74.2634974,52.8508078 C74.0166291,53.0320687 73.7724589,53.202508 73.5242416,53.3932377 C73.0574852,53.7557594 72.5947758,54.1399242 72.1334154,54.5294997 C72.0362869,54.6106613 71.9418564,54.6810014 71.8474259,54.7635156 C71.2794939,55.2518378 70.718307,55.761803 70.1625161,56.290706 C70.0721327,56.3759256 69.9844472,56.4719668 69.8967618,56.5571865 C69.4313544,57.0076332 68.968645,57.4634907 68.5153786,57.9396386 C67.9730778,58.5091224 67.433475,59.1016019 66.9006172,59.7184299 C58.0241512,69.9826639 55.8778811,80.6486477 59.5040119,83.801775 C61.2873991,85.3519611 64.5992113,85.277563 68.590923,83.594813 C73.1856408,81.6577567 78.0312739,77.9135026 82.2347797,73.0532769 C91.1004537,62.8012171 93.2507708,52.1487602 89.6421771,48.982106 C89.623291,48.9672264 89.617895,48.9618156 89.5909148,48.9428779 C89.4465711,48.8184302 89.2819922,48.7169782 89.1174134,48.6141735 C88.9730696,48.5262485 88.8246789,48.4464396 88.6668451,48.3733942 C88.5602735,48.3246972 88.4523529,48.2787057 88.3417344,48.2367722 C88.1434303,48.1650795 87.9370323,48.1028556 87.7198421,48.0514533 C87.6335057,48.0311629 87.5471692,48.0108725 87.4567858,47.9932875 C87.1923804,47.9445905 86.917183,47.9107732 86.6284955,47.8918355 L86.6284955,47.8918355 Z M78.0690461,41.4029675 C77.281226,41.4029675 76.4165126,41.5125356 75.4924428,41.7276138 C75.4843487,41.7303191 75.4789527,41.7343772 75.4708587,41.7357299 C74.8867386,41.8737046 74.2850815,42.0617289 73.6780284,42.2741017 C73.4891674,42.3417364 73.2962594,42.4174872 73.1020024,42.4918853 C72.7067433,42.6447396 72.3047393,42.8165316 71.9013862,42.9991451 C71.6221417,43.1262983 71.3428973,43.2520987 71.0623038,43.3914261 C70.6576017,43.5929773 70.2502016,43.814819 69.8414525,44.0434241 C69.6080743,44.1732826 69.3746961,44.295025 69.1399688,44.4329996 C68.4910965,44.8198698 67.8395261,45.2351466 67.1879557,45.6855933 C67.1002703,45.7451118 67.0152828,45.8127464 66.9275974,45.8749703 C66.3475244,46.2834836 65.7661024,46.7163453 65.1873784,47.1735555 C65.0147055,47.3088248 64.8433816,47.453563 64.6720577,47.594243 C64.1796701,47.9959928 63.6886316,48.413975 63.2029891,48.8481894 C63.0114301,49.0186287 62.8212201,49.1904207 62.6323591,49.3649181 C62.1548106,49.8045433 61.6853562,50.2631062 61.2172508,50.7324907 C61.0418799,50.9083407 60.86516,51.0787801 60.6911381,51.2586882 C60.0678968,51.9039227 59.4514006,52.5694477 58.8524415,53.2620265 C54.4088125,58.4009069 51.2440421,64.2215447 50.1715815,69.233272 C50.1688835,69.2454462 50.1634875,69.2549151 50.1607895,69.2670893 C49.3756674,72.9951111 49.8289338,75.9304548 51.4571852,77.3467243 C52.0480503,77.8607476 52.6078882,78.3409536 53.1366989,78.7873422 C53.1380479,78.6899484 53.147491,78.5871437 53.150189,78.4883971 C53.154236,78.3680074 53.160981,78.2462651 53.1677261,78.1258754 C53.1947062,77.590209 53.2405724,77.0477791 53.3134188,76.4918223 C53.3188149,76.4485362 53.3215129,76.4079554 53.3269089,76.3646692 C53.4091983,75.7748951 53.5238639,75.1702413 53.6547176,74.5588241 C53.6857448,74.4222021 53.7154229,74.2855801 53.7477991,74.1476055 C53.8921428,73.5307775 54.0526747,72.9085387 54.2482807,72.2741257 C54.2604217,72.2348976 54.2752608,72.1943169 54.2874019,72.1537361 C54.4762628,71.550435 54.690755,70.9376651 54.9241332,70.3194844 C54.9767444,70.1801571 55.0280067,70.0408297 55.083316,69.9001496 C55.3355803,69.2576205 55.6080797,68.612386 55.9062103,67.960388 C55.9561235,67.8535252 56.0100838,67.7466625 56.0599971,67.6397997 C56.3365435,67.052731 56.631976,66.4629569 56.9449456,65.8718301 L56.9449456,65.8718301 L57.1445987,65.489018 C57.5007365,64.8343146 57.8784585,64.1782585 58.2791136,63.5208497 L58.2791136,63.5208497 L58.5448679,63.0947514 C58.9198919,62.4941558 59.3111039,61.8949128 59.722551,61.2970225 C59.7832564,61.2050394 59.8412637,61.114409 59.904667,61.0237786 C60.3633294,60.3663698 60.8489719,59.708961 61.3521515,59.0556103 C61.4681661,58.902756 61.5868787,58.7526071 61.7055913,58.5997528 C62.229006,57.9355806 62.7645618,57.272761 63.3324937,56.616705 C63.8545595,56.0147566 64.3847192,55.4371567 64.918926,54.8703784 C65.0524777,54.7296983 65.1833313,54.5903709 65.318232,54.4523962 C65.8524388,53.8964395 66.3920416,53.3540096 66.9370404,52.8359282 C66.9869537,52.7885839 67.038216,52.7439451 67.0894782,52.6966008 C67.5899598,52.224511 68.0944884,51.7727115 68.6017151,51.3330863 C68.7635959,51.1910536 68.9268257,51.0503735 69.0900556,50.9123988 C69.6067253,50.4768317 70.1233949,50.0534388 70.6427626,49.651689 C70.8545567,49.4880132 71.0703979,49.3338062 71.282192,49.1755411 C71.5992086,48.9388198 71.9162252,48.708862 72.2332419,48.4856677 C73.3448236,47.7024585 74.4631504,46.9990581 75.5841752,46.3714086 L75.5841752,46.3714086 L75.6084574,46.3578817 C76.6458437,45.7775764 77.6845791,45.2459681 78.7152205,44.8131064 C80.1208858,44.2192742 81.4766378,43.7891178 82.7716845,43.5077577 C82.284693,43.1087132 81.8691988,42.7624239 81.5832093,42.5135284 C80.7306369,41.7722526 79.5273227,41.4029675 78.0690461,41.4029675 Z M49.9166192,21.8349114 C49.7452953,21.8376168 49.5631794,21.8538491 49.3810634,21.8700814 C49.2569548,21.8822556 49.1341952,21.8890191 49.0046905,21.9066041 C48.8104335,21.933658 48.6040354,21.9769441 48.4003354,22.0188776 C48.2708307,22.0459315 48.145373,22.0662219 48.0145194,22.0986865 C47.7824902,22.1554996 47.5410179,22.2298977 47.3008947,22.3029431 C47.1835311,22.3394658 47.0715635,22.3665197 46.9528509,22.4071005 C46.58727,22.5301955 46.212246,22.6708756 45.827779,22.8331988 C42.2744946,24.3306298 38.5202082,27.2348616 35.2556112,31.0102276 C32.3984144,34.3148564 30.2521443,37.8954347 29.1068374,41.2447024 C28.9422585,41.722203 28.8006128,42.1956455 28.6778531,42.6636773 C27.8617039,45.7829872 28.1166662,48.1988968 29.3725917,49.2918727 C29.806972,49.6679213 30.381649,50.1724758 31.0480584,50.7568391 L31.0480584,50.7568391 L31.3785651,51.0449627 L31.3785651,51.0449627 C32.5764833,52.1000632 34.0428539,53.3905323 35.6265882,54.7892168 C35.6265882,54.7892168 35.6279372,54.7905695 35.6292862,54.7905695 L35.6292862,54.7905695 L35.989471,55.1084523 C38.1465332,57.013044 40.4789663,59.074548 42.5901622,60.942617 L42.5901622,60.942617 L43.5250241,61.7677597 C44.6757271,62.7876901 45.7319995,63.722401 46.6236932,64.511021 C46.7073316,64.2742997 46.8085071,64.0335203 46.9002396,63.7954464 C46.9447568,63.6764094 46.9906231,63.5573724 47.0378383,63.4396881 C47.2752635,62.8363871 47.5302258,62.2317333 47.8067723,61.6243742 C47.8566855,61.5175115 47.9025518,61.4106487 47.952465,61.3010806 C48.6188745,59.8726369 49.3891575,58.4387823 50.261965,57.013044 C50.3496505,56.8683058 50.446779,56.7249204 50.5358134,56.5801822 C50.8798102,56.0323416 51.2359481,55.4858537 51.608274,54.9407184 C51.7553157,54.7242875 51.9077535,54.5078567 52.0601913,54.2914258 C52.4122822,53.7936348 52.776514,53.2985492 53.151538,52.8061689 C53.3093718,52.6005596 53.4604606,52.3949503 53.6209924,52.189341 C54.1565482,51.506231 54.706943,50.8285319 55.284318,50.1603015 C59.7846054,44.9564918 65.0214505,40.8930022 70.0950658,38.6231835 C70.1773552,38.5866607 70.2609937,38.5393165 70.3446321,38.5027938 C62.3989809,31.4133301 56.8747973,26.4922332 54.2010654,24.1169044 C54.2010654,24.1169044 54.1997164,24.1169044 54.1997164,24.1155517 C54.0337886,23.9681081 53.8853978,23.8368969 53.739705,23.7070384 C53.0908327,23.1321439 52.6551034,22.7479791 52.4702895,22.585656 L52.4702895,22.585656 L52.4163292,22.5491332 C52.2787305,22.435507 52.1303397,22.3313497 51.9671098,22.2447773 C51.8969615,22.2082546 51.8160211,22.1839062 51.7418257,22.1514415 C51.620415,22.0986865 51.5003534,22.0445788 51.3654527,22.0053507 C51.2750693,21.9782968 51.1738937,21.9634172 51.0767652,21.9431268 C50.9472606,21.9147203 50.8164069,21.884961 50.6761102,21.8687287 C50.5681896,21.8552018 50.452175,21.8524964 50.3388584,21.8470856 C50.2012597,21.8389695 50.062312,21.832206 49.9166192,21.8349114 Z M48.2748777,14.2027201 C48.0671306,14.2057232 47.8458935,14.228719 47.6287034,14.2449513 C47.4344464,14.2611836 47.2455854,14.2679471 47.0445833,14.2950009 C46.8112051,14.3261129 46.5670349,14.3802206 46.3242136,14.4262121 C46.1205135,14.4654402 45.9249075,14.4938468 45.7171605,14.5438964 C45.441963,14.6101784 45.1546245,14.7008088 44.8699841,14.7860285 C44.6797741,14.8428416 44.4949601,14.8861277 44.3020521,14.951057 C43.8164096,15.1133802 43.319975,15.3000518 42.8113994,15.5137773 C38.2166816,17.4521862 33.3710485,21.1950876 29.1675427,26.0553133 C26.4681797,29.1773287 24.400152,32.3331613 22.9175933,35.3063804 C22.8784721,35.3875419 22.8299078,35.4714089 22.7907866,35.5525705 C22.5843886,35.9705526 22.4076686,36.3790659 22.2282507,36.7875791 C22.1446123,36.9756035 22.0488328,37.1676859 21.9705904,37.3530048 C21.8613208,37.6154272 21.7749844,37.8670281 21.6738088,38.1253925 C21.5497002,38.4486861 21.4121015,38.7773905 21.3028319,39.0952733 C21.2502206,39.2427168 21.2151465,39.3833969 21.1652332,39.5308404 C21.0289835,39.9461172 20.8913848,40.3627466 20.7807662,40.7631437 C20.747041,40.8902968 20.7254569,41.0093338 20.6944298,41.1337816 C20.5878582,41.5450002 20.4839847,41.9562189 20.4070913,42.3484998 L20.4070913,42.3484998 L20.3828091,42.5000014 C20.2978217,42.9572116 20.2249753,43.4076584 20.1777601,43.8391674 C20.169666,43.9040967 20.1723641,43.9636152 20.165619,44.0285444 C20.1264978,44.4384104 20.0954707,44.8415129 20.0927726,45.2229723 C20.0927726,45.2432627 20.0954707,45.2608477 20.0954707,45.2811381 C20.0846786,47.0234066 20.4421655,48.4586138 21.1598372,49.462312 C21.1611862,49.4650174 21.1638842,49.4663701 21.1638842,49.4677228 C21.3446511,49.7193236 21.5470022,49.9438707 21.7722864,50.1400112 C22.6275568,50.8839923 23.7377895,51.1829374 24.8736534,51.2343397 C24.8169951,51.1477674 24.7765249,51.0517262 24.7252627,50.9624485 C24.6551143,50.8420588 24.5890129,50.7189637 24.5256096,50.5931633 C24.3920579,50.3361516 24.2746943,50.0669657 24.1681228,49.7910164 C24.1209075,49.6665686 24.0682963,49.546179 24.026477,49.4176731 C23.8983214,49.0375664 23.7917498,48.6439328 23.7094604,48.2313614 C23.7027154,48.2029549 23.6932723,48.1786064 23.6892253,48.1501998 C23.6055869,47.7092219 23.5543246,47.246601 23.5246464,46.7731584 C23.5152034,46.6284203 23.5152034,46.4782714 23.5111564,46.3294751 C23.5003643,45.9872438 23.5003643,45.638249 23.5165524,45.2811381 C23.5246464,45.105288 23.5340895,44.9280853 23.5489286,44.7481771 C23.5786067,44.3856554 23.6231239,44.0150175 23.6784332,43.6376162 C23.7013663,43.471235 23.7216015,43.3062064 23.7499306,43.1371198 C23.8470591,42.5906319 23.9617247,42.0360277 24.1101155,41.4638386 C25.1205217,37.5897261 27.308611,33.4207264 30.3384807,29.5479665 C30.771512,28.9960678 31.2220803,28.4482272 31.6874877,27.9085027 C35.4174921,23.5947649 39.7896237,20.2427918 43.9971765,18.4680586 C44.5340813,18.2421589 45.058845,18.0541346 45.5782127,17.8836953 C45.7266035,17.8349983 45.8709472,17.7930649 46.01664,17.7497787 C46.407852,17.6320944 46.793668,17.5306424 47.172739,17.4454228 C47.3062907,17.4156635 47.4425404,17.3818462 47.5760921,17.356145 C48.5676122,17.1613573 49.5146151,17.078843 50.4103558,17.1099549 C50.5290684,17.114013 50.643734,17.1234819 50.7597486,17.131598 C51.0983493,17.1545938 51.4302051,17.1951746 51.7526177,17.250635 C51.8632363,17.2709254 51.9765529,17.285805 52.0858225,17.3101535 C52.4932226,17.3967258 52.8925286,17.5035886 53.2702506,17.6456213 C53.0260803,16.7501386 52.5997941,15.9195851 51.9010085,15.3081679 C51.8996595,15.3081679 51.8983105,15.3081679 51.8983105,15.3068152 C51.6797714,15.1160855 51.4369501,14.9524097 51.1752427,14.8117296 C51.0929533,14.7684435 50.9985228,14.7413896 50.9135354,14.7021615 C50.7233254,14.6142365 50.5331154,14.5263114 50.3226703,14.4627348 C50.2107027,14.4289175 50.0838961,14.4113325 49.9665325,14.382926 C49.7655304,14.3369344 49.5658774,14.2868848 49.3513853,14.2598309 C49.2164846,14.2422459 49.0721408,14.2408932 48.9331931,14.2314244 C48.717352,14.2165447 48.5028599,14.2003124 48.2748777,14.2027201 Z M40.9605618,7.73985093 C39.3687335,7.73985093 37.4706807,8.17947614 35.3864649,9.05737386 C30.7930961,10.9957828 25.947463,14.7386842 21.7439572,19.5989099 C17.5391024,24.4604884 14.5294678,29.7995674 13.2667973,34.6354447 C12.1700546,38.8355563 12.5639646,42.1334216 14.3473519,43.6836077 L14.3473519,43.6836077 L15.4184634,44.6156132 C15.4413965,44.0650672 15.4980548,43.4996415 15.5722502,42.9260997 C15.5884383,42.801652 15.6032774,42.6772042 15.6221635,42.5514038 C15.7071509,41.9670404 15.8123735,41.3732082 15.9459252,40.7685545 L15.9459252,40.7685545 L16.0093285,40.506132 C16.1401822,39.9488225 16.2912709,39.3833969 16.4612458,38.8112078 C16.49632,38.6962289 16.5273472,38.5839554 16.5624213,38.4676238 C16.7566784,37.8494431 16.9752175,37.2231463 17.2153407,36.590086 C17.267952,36.4507586 17.3246103,36.3100785 17.3799196,36.1693985 C17.6267879,35.5431016 17.8911932,34.9127467 18.1839278,34.276981 C18.1974178,34.2458691 18.2095589,34.2147572 18.224398,34.1822925 C18.5279245,33.5262365 18.8638273,32.8647696 19.2159181,32.2005974 C19.2941605,32.0531538 19.3710539,31.9057103 19.4533433,31.7569141 C19.8094812,31.1049161 20.1831561,30.4502127 20.5824622,29.7955093 C20.6499125,29.6859412 20.7214099,29.5763731 20.7902093,29.4668049 C21.1638842,28.867562 21.5550962,28.2696717 21.9638453,27.6717814 C22.0447858,27.5554498 22.1203302,27.4377655 22.2026196,27.3200812 C22.6585839,26.6667306 23.1374814,26.0174379 23.636614,25.3681453 C23.7472326,25.2261126 23.8592002,25.0854325 23.9698187,24.9433998 C24.4932335,24.2751694 25.0314872,23.6123499 25.6007682,22.9535884 C30.2696814,17.5549909 35.7318107,13.3629955 40.9821459,11.1499898 C41.7375898,10.8307543 42.4795437,10.5615684 43.2053094,10.3329633 C43.4481307,10.2572125 43.6788109,10.2098682 43.9175851,10.144939 C44.3951336,10.0123751 44.8740311,9.87981117 45.3353915,9.78647535 L45.3353915,9.78647535 L45.5026683,9.74454187 L44.473376,8.85041184 C43.6208036,8.10913611 42.4174894,7.73985093 40.9605618,7.73985093 Z" id="icon" fill="#000000"></path>
    </g>
</svg>

<svg width="100" height="100" xmlns="http://www.w3.org/2000/svg"><g id="justice-hammer" stroke="none" stroke-width="1" fill="none" fill-rule="evenodd"><path d="M33.557 4.694c5.794-2.443 10.77-2.238 14.01.58l7.422 6.454.003.002c2.441 2.125 3.54 5.446 3.235 9.638 3.848 3.42 11.034 9.83 17.42 15.53 3.644-.593 6.767.07 9.03 2.039 1.351 1.175 5.881 4.75 7.43 5.967.213.153.418.315.616.488 6.3 5.478 3.26 18.99-6.92 30.763-4.669 5.399-10.132 9.59-15.383 11.805-2.68 1.13-5.187 1.692-7.426 1.692-2.47 0-4.603-.707-6.304-2.074-.016-.012-.038-.014-.055-.027-.119-.08-3.006-2.049-8.271-6.628-2.807-2.44-3.749-6.48-3.042-11.247l-3.166-2.803-24.648 27.53A7.795 7.795 0 0 1 11.682 97 7.78 7.78 0 0 1 6.5 95.035a7.4 7.4 0 0 1-2.487-5.149 7.404 7.404 0 0 1 1.886-5.398l24.82-27.722-1.49-1.314c-1.386.345-2.71.518-3.953.518-2.619 0-4.878-.757-6.597-2.253l-.004-.005-7.42-6.452c-3.241-2.816-4.148-7.726-2.556-13.824 1.442-5.525 4.81-11.539 9.478-16.939 4.67-5.398 10.131-9.59 15.38-11.803zm52.9 43.187a9.497 9.497 0 0 0-.955.018l-.223.016c-.331.028-.677.077-1.03.14l-.244.044a16.12 16.12 0 0 0-1.4.349c-.34.1-.683.215-1.034.342a22.27 22.27 0 0 0-2.208.939c-.273.131-.544.262-.82.408-.28.146-.559.307-.838.466-.277.155-.55.305-.827.476-.285.172-.568.36-.851.546-.274.179-.547.35-.825.54-.313.218-.627.454-.939.686-.246.181-.49.352-.739.542-.467.363-.93.747-1.39 1.136-.098.082-.192.152-.287.235-.568.488-1.129.998-1.684 1.527-.09.085-.179.181-.266.266-.466.45-.928.906-1.382 1.383a49.57 49.57 0 0 0-1.614 1.778c-8.877 10.265-11.023 20.93-7.397 24.084 1.783 1.55 5.095 1.476 9.087-.207 4.595-1.937 9.44-5.681 13.644-10.542C91.1 62.801 93.25 52.15 89.642 48.983c-.019-.016-.024-.021-.051-.04-.144-.125-.309-.226-.474-.329a4.469 4.469 0 0 0-.775-.377 5.655 5.655 0 0 0-.885-.244 7.148 7.148 0 0 0-.829-.101zm-8.388-6.478c-.788 0-1.652.11-2.577.325l-.021.008c-.584.138-1.186.326-1.793.538-.189.068-.382.143-.576.218a23.34 23.34 0 0 0-1.2.507c-.28.127-.56.253-.84.392-.404.202-.812.424-1.22.652-.234.13-.467.252-.702.39-.649.387-1.3.802-1.952 1.253-.088.06-.173.127-.26.189-.58.408-1.162.841-1.74 1.299-.173.135-.345.28-.516.42a42.778 42.778 0 0 0-2.04 1.77c-.477.44-.947.9-1.415 1.368-.175.176-.352.347-.526.527-.623.645-1.24 1.31-1.839 2.003-4.443 5.139-7.608 10.96-8.68 15.971-.003.012-.009.022-.011.034-.785 3.728-.332 6.663 1.296 8.08.591.514 1.15.994 1.68 1.44.001-.097.01-.2.013-.299.004-.12.011-.242.018-.362a20.45 20.45 0 0 1 .145-1.634c.006-.043.009-.084.014-.127.082-.59.197-1.195.328-1.806a27.868 27.868 0 0 1 .594-2.285c.011-.04.026-.08.038-.12.19-.604.404-1.216.637-1.835.053-.139.104-.278.16-.419.252-.642.524-1.288.822-1.94.05-.106.104-.213.154-.32a42.37 42.37 0 0 1 .885-1.768l.2-.383c.356-.655.733-1.31 1.134-1.968l.266-.426c.375-.6.766-1.2 1.178-1.798.06-.092.118-.183.182-.273.458-.658.944-1.315 1.447-1.968.116-.153.235-.303.354-.456a55.436 55.436 0 0 1 1.626-1.983 56.86 56.86 0 0 1 1.587-1.747c.133-.14.264-.28.4-.418a50.677 50.677 0 0 1 1.618-1.616l.152-.14c.501-.471 1.005-.923 1.513-1.363a47.704 47.704 0 0 1 2.041-1.681c.212-.164.427-.318.64-.476a38.326 38.326 0 0 1 4.302-2.804l.023-.014a31.119 31.119 0 0 1 3.107-1.545 22.986 22.986 0 0 1 4.057-1.305 57.116 57.116 0 0 1-1.189-.994c-.852-.742-2.056-1.111-3.514-1.111zM49.917 21.835c-.172.003-.354.019-.536.035-.124.012-.247.019-.376.037-.195.027-.401.07-.605.112-.13.027-.255.047-.385.08-.233.056-.474.13-.714.204-.117.036-.23.064-.348.104-.366.123-.74.264-1.125.426-3.554 1.498-7.308 4.402-10.572 8.177-2.858 3.305-5.004 6.885-6.15 10.235-.164.477-.305.95-.428 1.419-.816 3.119-.561 5.535.695 6.628.434.376 1.009.88 1.675 1.465l.33.288c1.198 1.055 2.665 2.346 4.249 3.744 0 0 0 .002.002.002l.36.317c2.158 1.905 4.49 3.967 6.601 5.835l.935.825c1.15 1.02 2.207 1.954 3.099 2.743.083-.237.185-.477.276-.716.045-.119.09-.238.138-.355.237-.604.492-1.208.769-1.816.05-.106.096-.213.145-.323a43.233 43.233 0 0 1 2.31-4.288c.088-.145.185-.288.274-.433.344-.548.7-1.094 1.072-1.64.147-.216.3-.432.452-.649.352-.497.717-.992 1.092-1.485.157-.205.308-.411.469-.617a54.934 54.934 0 0 1 1.663-2.029c4.5-5.204 9.737-9.267 14.811-11.537.082-.036.166-.084.25-.12-7.946-7.09-13.47-12.01-16.144-14.386l-.001-.001-.46-.409-1.27-1.121-.054-.037a2.676 2.676 0 0 0-.449-.304c-.07-.037-.151-.061-.225-.094-.122-.052-.242-.106-.377-.146-.09-.027-.191-.042-.288-.062-.13-.028-.26-.058-.4-.074-.109-.014-.225-.017-.338-.022a5.384 5.384 0 0 0-.422-.012zm-1.642-7.632c-.208.003-.43.026-.646.042-.195.016-.383.023-.584.05-.234.031-.478.085-.72.131-.204.04-.4.068-.608.118-.275.066-.562.157-.847.242-.19.057-.375.1-.568.165-.486.162-.982.35-1.49.563-4.595 1.938-9.441 5.681-13.644 10.541-2.7 3.122-4.768 6.278-6.25 9.251-.04.082-.088.165-.127.247-.207.418-.383.826-.563 1.235-.083.188-.18.38-.257.565-.11.262-.196.514-.297.772-.124.324-.262.652-.371.97-.053.148-.088.288-.138.436-.136.415-.274.832-.384 1.232-.034.127-.056.246-.087.37-.106.412-.21.823-.287 1.215l-.024.152c-.085.457-.158.908-.205 1.34-.008.064-.006.124-.012.189-.04.41-.07.813-.073 1.194l.002.058c-.01 1.742.347 3.178 1.065 4.181.001.003.004.004.004.006.18.251.383.476.608.672.856.744 1.966 1.043 3.102 1.094-.057-.086-.097-.182-.149-.272a7.952 7.952 0 0 1-.557-1.171c-.047-.124-.1-.245-.142-.373a9.547 9.547 0 0 1-.317-1.187c-.006-.028-.016-.052-.02-.08a11.172 11.172 0 0 1-.164-1.378c-.01-.145-.01-.295-.014-.444a13.62 13.62 0 0 1 .038-1.58c.03-.363.074-.734.13-1.111.022-.167.043-.332.07-.5.098-.547.213-1.102.361-1.674 1.01-3.874 3.199-8.043 6.228-11.916.434-.552.884-1.1 1.35-1.64 3.73-4.313 8.102-7.665 12.31-9.44a20.618 20.618 0 0 1 1.58-.584c.149-.049.293-.09.439-.134.39-.118.777-.22 1.156-.305.133-.03.27-.063.403-.089a12.475 12.475 0 0 1 2.834-.246c.12.004.234.013.35.022.338.023.67.063.993.119.11.02.224.035.333.06.407.086.807.193 1.184.335-.244-.896-.67-1.726-1.369-2.338l-.003-.001a3.91 3.91 0 0 0-.723-.495c-.082-.044-.176-.07-.261-.11-.19-.088-.38-.176-.591-.24-.112-.033-.24-.05-.356-.08-.201-.045-.401-.095-.616-.122-.135-.018-.279-.02-.418-.029-.216-.014-.43-.03-.658-.028zM40.96 7.74c-1.592 0-3.49.44-5.575 1.317-4.593 1.939-9.439 5.682-13.642 10.542-4.205 4.861-7.215 10.2-8.477 15.036-1.097 4.2-.703 7.498 1.08 9.049l1.071.932c.023-.55.08-1.116.154-1.69.016-.124.031-.249.05-.375.085-.584.19-1.178.324-1.782l.063-.263c.131-.557.282-1.123.452-1.695.035-.115.066-.227.101-.343.195-.619.413-1.245.653-1.878.053-.14.11-.28.165-.42.247-.627.511-1.257.804-1.893l.04-.095c.304-.656.64-1.317.992-1.981.078-.148.155-.295.237-.444.356-.652.73-1.307 1.13-1.961.067-.11.138-.22.207-.33.374-.598.765-1.196 1.174-1.794.08-.117.156-.234.239-.352.456-.653.934-1.303 1.434-1.952l.333-.425a53.205 53.205 0 0 1 1.63-1.99c4.67-5.398 10.132-9.59 15.382-11.803.756-.32 1.498-.588 2.223-.817.243-.076.474-.123.713-.188.477-.133.956-.265 1.417-.359l.168-.041-1.03-.895c-.852-.74-2.056-1.11-3.512-1.11z" id="icon" fill="#000"/></g></svg>
